X:110
T:Glencoe March
M:C|
L:1/8
K:D
|:F>G |"D"A2 d2 "A"F2 d2 |"D"A>F A<d "D"f3a|"G"g3e "A"c>A c<e |"D"d>c d<B "A"A2 F>G|
"D"A2 d2 "A"F2 d2 |"D"A>F A<d "D"f3 a|"G"g3e "A"c>A c<e |"D-A"d4 "D"d2 :|
||f>g|"D"a3 g f>d f<a |"G"g3 e "A"c>A c<e |"D"d>c d<e f>d f<a |"G"g>f g<b "A"a2 f>g |
[1 "D"a3 g f>d f<a |"G"g3 "A"e c>A c<e |"D"d>c d<f "A"e>a c<e |"D-A"d4 "D"d2 :|
[2"D"(3agf "A"g>e "D"f>d e<c |"D"d>B A<F D>F A<d |"G"B>G B<d "A"c>A c<e|"D-A"d4 "D"d2||
